apps/scalable/deepin-calculator.svg

<svg xmlns="http://www.w3.org/2000/svg" style="isolation:isolate" width="256" height="256"><defs><filter id="a" width="270.648" height="254.338" x="-7.32" y="2.95" filterUnits="userSpaceOnUse"><feGaussianBlur xmlns="http://www.w3.org/2000/svg" in="SourceGraphic" stdDeviation="4.294"/><feOffset xmlns="http://www.w3.org/2000/svg" dy="4" result="pf_100_offsetBlur"/><feFlood xmlns="http://www.w3.org/2000/svg" flood-opacity=".4"/><feComposite xmlns="http://www.w3.org/2000/svg" in2="pf_100_offsetBlur" operator="in" result="pf_100_dropShadow"/><feBlend xmlns="http://www.w3.org/2000/svg" in="SourceGraphic" in2="pf_100_dropShadow"/></filter></defs><g filter="url(#a)"><linearGradient id="b" x1=".5" x2=".5" y1="-.036" y2="1.036" gradientTransform="matrix(244.648 0 0 228.338 5.676 11.947)" gradientUnits="userSpaceOnUse"><stop offset="0%"/><stop offset="100%" stop-color="#333"/></linearGradient><path fill="url(#b)" d="M165.685 11.947c74.055 0 84.639 10.557 84.639 84.544v59.251c0 73.986-10.584 84.543-84.639 84.543h-75.37c-74.055 0-84.639-10.557-84.639-84.543V96.491c0-73.987 10.584-84.544 84.639-84.544h75.37z"/></g><defs><filter id="c" width="148.324" height="254.338" x="115" y="2.95" filterUnits="userSpaceOnUse"><feGaussianBlur xmlns="http://www.w3.org/2000/svg" in="SourceGraphic" stdDeviation="4.294"/><feOffset xmlns="http://www.w3.org/2000/svg" dy="4" result="pf_100_offsetBlur"/><feFlood xmlns="http://www.w3.org/2000/svg" flood-opacity=".4"/><feComposite xmlns="http://www.w3.org/2000/svg" in2="pf_100_offsetBlur" operator="in" result="pf_100_dropShadow"/><feBlend xmlns="http://www.w3.org/2000/svg" in="SourceGraphic" in2="pf_100_dropShadow"/></filter></defs><g filter="url(#c)"><linearGradient id="d" x1=".306" x2=".729" y1="-.14" y2="1.057" gradientTransform="matrix(122.324 0 0 228.338 128 11.947)" gradientUnits="userSpaceOnUse"><stop offset="0%" stop-color="#58c0f4"/><stop offset="100%" stop-color="#80cbfa"/></linearGradient><path fill="url(#d)" d="M128 11.947h37.685c74.055 0 84.639 10.557 84.639 84.544v59.251c0 73.986-10.584 84.543-84.639 84.543H128V11.947z"/></g><path fill="#FFF" d="M5.68 126.12v29.626c0 73.986 10.584 84.544 84.64 84.544h37.685V126.12H5.68z" opacity=".1"/><path fill="#F2F2F2" d="M70.92 52.725V77.19H46.455v8.155H70.92v24.465h8.155V85.345h24.465V77.19H79.075V52.725H70.92zM103.54 175.05v-8.155H46.455v8.155h57.085z"/><path fill="#FFF" d="M152.47 109.81v8.155h57.085v-8.155H152.47zm0 24.465v8.155h57.085v-8.155H152.47z"/><g opacity=".4"><linearGradient id="e" x1=".517" x2=".517" y2="1"><stop offset="0%" stop-color="#fff"/><stop offset="12.5%" stop-opacity=".098" stop-color="#fff"/><stop offset="92.5%" stop-opacity=".098"/><stop offset="100%" stop-opacity=".498"/></linearGradient><path fill="none" stroke="url(#e)" stroke-linecap="round" stroke-linejoin="round" stroke-width="4.077" d="M165.685 11.947c74.055 0 84.639 10.557 84.639 84.544v59.251c0 73.986-10.584 84.543-84.639 84.543h-75.37c-74.055 0-84.639-10.557-84.639-84.543V96.491c0-73.987 10.584-84.544 84.639-84.544h75.37z" vector-effect="non-scaling-stroke"/></g></svg>

<svg xmlns="http://www.w3.org/2000/svg" style="isolation:isolate" width="256" height="256" viewBox="0 0 256 256">
 <defs>
  <filter id="n2KxfVJqxRnAUS42P5xRv82UxeoMXZOI" width="270.648" height="254.338" x="-7.32" y="2.95" filterUnits="userSpaceOnUse">
   <feGaussianBlur xmlns="http://www.w3.org/2000/svg" in="SourceGraphic" stdDeviation="4.294"/>
   <feOffset xmlns="http://www.w3.org/2000/svg" dx="0" dy="4" result="pf_100_offsetBlur"/>
   <feFlood xmlns="http://www.w3.org/2000/svg" flood-opacity=".4"/>
   <feComposite xmlns="http://www.w3.org/2000/svg" in2="pf_100_offsetBlur" operator="in" result="pf_100_dropShadow"/>
   <feBlend xmlns="http://www.w3.org/2000/svg" in="SourceGraphic" in2="pf_100_dropShadow" mode="normal"/>
  </filter>
 </defs>
 <g filter="url(#n2KxfVJqxRnAUS42P5xRv82UxeoMXZOI)">
  <linearGradient id="_lgradient_16" x1=".5" x2=".5" y1="-.036" y2="1.036" gradientTransform="matrix(244.648,0,0,228.338,5.676,11.947)" gradientUnits="userSpaceOnUse">
   <stop offset="0%" style="stop-color:rgb(0,0,0)"/>
   <stop offset="100%" style="stop-color:rgb(51,51,51)"/>
  </linearGradient>
  <path fill="url(#_lgradient_16)" d="M 165.685 11.947 C 239.74 11.947 250.324 22.504 250.324 96.491 L 250.324 155.742 C 250.324 229.728 239.74 240.285 165.685 240.285 L 90.315 240.285 C 16.26 240.285 5.676 229.728 5.676 155.742 L 5.676 96.491 C 5.676 22.504 16.26 11.947 90.315 11.947 L 165.685 11.947 Z"/>
 </g>
 <g>
  <defs>
   <filter id="CGSskI8Qd040vtlrk6QF38p2CwYU5z5Z" width="148.324" height="254.338" x="115" y="2.95" filterUnits="userSpaceOnUse">
    <feGaussianBlur xmlns="http://www.w3.org/2000/svg" in="SourceGraphic" stdDeviation="4.294"/>
    <feOffset xmlns="http://www.w3.org/2000/svg" dx="0" dy="4" result="pf_100_offsetBlur"/>
    <feFlood xmlns="http://www.w3.org/2000/svg" flood-opacity=".4"/>
    <feComposite xmlns="http://www.w3.org/2000/svg" in2="pf_100_offsetBlur" operator="in" result="pf_100_dropShadow"/>
    <feBlend xmlns="http://www.w3.org/2000/svg" in="SourceGraphic" in2="pf_100_dropShadow" mode="normal"/>
   </filter>
  </defs>
  <g filter="url(#CGSskI8Qd040vtlrk6QF38p2CwYU5z5Z)">
   <linearGradient id="_lgradient_17" x1=".306" x2=".729" y1="-.14" y2="1.057" gradientTransform="matrix(122.324,0,0,228.338,128,11.947)" gradientUnits="userSpaceOnUse">
    <stop offset="0%" style="stop-color:rgb(88,192,244)"/>
    <stop offset="100%" style="stop-color:rgb(128,203,250)"/>
   </linearGradient>
   <path fill="url(#_lgradient_17)" d="M 128 11.947 L 165.685 11.947 C 239.74 11.947 250.324 22.504 250.324 96.491 L 250.324 155.742 C 250.324 229.728 239.74 240.285 165.685 240.285 L 128 240.285 L 128 11.947 Z"/>
  </g>
  <g opacity=".1">
   <path fill="#FFFFFF" d="M 5.68 126.12 L 5.68 155.746 C 5.68 229.732 16.264 240.29 90.32 240.29 L 128.005 240.29 L 128.005 126.12 L 5.68 126.12 Z"/>
  </g>
  <path fill="#F2F2F2" d="M 70.92 52.725 L 70.92 77.19 L 46.455 77.19 L 46.455 85.345 L 70.92 85.345 L 70.92 109.81 L 79.075 109.81 L 79.075 85.345 L 103.54 85.345 L 103.54 77.19 L 79.075 77.19 L 79.075 52.725 L 70.92 52.725 Z"/>
  <path fill="#F2F2F2" d="M 103.54 175.05 L 103.54 166.895 L 46.455 166.895 L 46.455 175.05 L 103.54 175.05 Z"/>
  <path fill="#FFFFFF" d="M 152.47 109.81 L 152.47 117.965 L 209.555 117.965 L 209.555 109.81 L 152.47 109.81 Z M 152.47 134.275 L 152.47 142.43 L 209.555 142.43 L 209.555 134.275 L 152.47 134.275 Z"/>
 </g>
 <g opacity=".4">
  <linearGradient id="_lgradient_18" x1=".517" x2=".517" y1="0" y2="1">
   <stop offset="0%" style="stop-color:rgb(255,255,255)"/>
   <stop offset="12.5%" stop-opacity=".098" style="stop-color:rgb(255,255,255)"/>
   <stop offset="92.5%" stop-opacity=".098" style="stop-color:rgb(0,0,0)"/>
   <stop offset="100%" stop-opacity=".498" style="stop-color:rgb(0,0,0)"/>
  </linearGradient>
  <path fill="none" stroke="url(#_lgradient_18)" stroke-linecap="round" stroke-linejoin="round" stroke-width="4.077" d="M 165.685 11.947 C 239.74 11.947 250.324 22.504 250.324 96.491 L 250.324 155.742 C 250.324 229.728 239.74 240.285 165.685 240.285 L 90.315 240.285 C 16.26 240.285 5.676 229.728 5.676 155.742 L 5.676 96.491 C 5.676 22.504 16.26 11.947 90.315 11.947 L 165.685 11.947 Z" vector-effect="non-scaling-stroke"/>
 </g>
</svg>
